X: 99
T: POLKA: Ray's Classic
C: C: Willie Hunter; S: Polca an Rí
C: Set Leaders: Oleg, Anton, Oliushka, Sophie
Z: Anton Zille ed.; David Sweenie at The Session
N: https://thesession.org/members/26966/sets/99681
R: Polka
M: 2/4
L: 1/8
Q: 1/4=140
K: Gmaj
|:G2 GD|EG ED|EA AG/A/|BA Bd|
G2 GD|EG ED|EA AG/A/|1 BG BA:|2 BG GB||
|:d2 dG|e2 e2|Ae Ae|f2 f2|
Bf Bf|g2 f>e|dB AG/A/|1 BG G/A/B/c/:|2 BG BA||

